backend/TSmeta.svg

<?xml version="1.0" encoding="UTF-8" standalone="no"?>
<!-- Created with Inkscape (http://www.inkscape.org/) -->

<svg
   width="219.61391"
   height="96.925499"
   version="1.0"
   id="svg6"
   sodipodi:docname="TSmeta.svg"
   inkscape:version="1.1.1 (c3084ef, 2021-09-22)"
   xmlns:inkscape="http://www.inkscape.org/namespaces/inkscape"
   xmlns:sodipodi="http://sodipodi.sourceforge.net/DTD/sodipodi-0.dtd"
   xmlns="http://www.w3.org/2000/svg"
   xmlns:svg="http://www.w3.org/2000/svg">
  <defs
     id="defs10" />
  <sodipodi:namedview
     id="namedview8"
     pagecolor="#ffffff"
     bordercolor="#666666"
     borderopacity="1.0"
     inkscape:pageshadow="2"
     inkscape:pageopacity="0.0"
     inkscape:pagecheckerboard="0"
     showgrid="true"
     inkscape:zoom="4.8517716"
     inkscape:cx="88.42131"
     inkscape:cy="83.680773"
     inkscape:window-width="2047"
     inkscape:window-height="1402"
     inkscape:window-x="830"
     inkscape:window-y="25"
     inkscape:window-maximized="0"
     inkscape:current-layer="g4"
     fit-margin-top="0"
     fit-margin-left="0"
     fit-margin-right="0"
     fit-margin-bottom="0">
    <inkscape:grid
       type="xygrid"
       id="grid163"
       originx="-0.23992106"
       originy="-0.97518689" />
  </sodipodi:namedview>
  <g
     fill="#800000"
     stroke="#000000"
     stroke-linecap="round"
     stroke-width="0.11"
     id="g4"
     style="display:inline"
     transform="translate(-0.23992106,-0.97518689)">
    <path
       id="NH_TS"
       style="fill:#d40000"
       d="m 30.998047,1.6113281 c -0.389603,-0.02873 -2.171875,0.2841406 -3.921875,0.7128907 -5.2,1.3 -9.75625,3.0875 -13.15625,6.1875 -1.5,1.3 -4.3648439,4.2062502 -5.4648439,5.9062502 -3.7,5.6 -6.1367187,13.30664 -7.1367187,21.30664 -0.50532603,5.067621 -1.01829052,9.373052 -1.02343752,13.97461 0.1396,5.2295 1.32997502,9.349572 3.48437502,12.638672 3.6,6.2 10.5191391,10.783203 17.6191411,11.783203 5.8,0.96 10.953125,-0.198985 15.953124,-2.958985 0.74001,-0.38 1.447266,-0.801484 1.447266,-0.771484 0.057,0.065 -0.39,2.400391 -0.75,3.900391 -0.99,4.1 -2.899219,9 -4.699219,12 -3.000001,5.1 -7.599999,9 -13,11 -0.60004,0.22 -1.101562,0.459531 -1.101562,0.519531 -0.0054,0.0188 0.02253,0.0292 0.07813,0.0332 0.3896,0.0287 2.171875,-0.284141 3.921875,-0.712891 5.200001,-1.3 9.75625,-3.0875 13.15625,-6.1875 1.5,-1.3 4.364844,-4.204297 5.464844,-5.904297 3.7,-5.600002 6.136718,-13.308593 7.136718,-21.308593 0.50539,-5.068016 1.018798,-9.37163 1.023438,-13.97461 -0.1396,-5.2295 -1.328022,-9.349573 -3.482422,-12.638671 -3.6,-6.2 -10.52109,-10.783204 -17.621094,-11.783204 -5.8,-0.96 -10.953125,0.200938 -15.953125,2.960938 -0.74001,0.38 -1.447265,0.799531 -1.447265,0.769531 -0.057,-0.065 0.39,-2.400391 0.75,-3.900391 0.99,-4.1 2.899218,-8.999999 4.699218,-12 3,-5.0999997 7.6,-8.9999995 13,-10.9999995 0.60004,-0.22 1.101563,-0.4595313 1.101563,-0.5195313 0.005,-0.0188 -0.02252,-0.029203 -0.07813,-0.033203 z M 25.207031,35.773438 c 7.731209,0 13.999,6.266841 14,13.998046 h 0.01563 c -0.0029,1.387703 -0.207217,2.727234 -0.585937,3.992188 -1.72811,5.772066 -7.079924,9.977612 -13.41211,9.978516 -6.33432,-10e-7 -11.686271,-4.206218 -13.414062,-9.978516 -0.381024,-1.272946 -0.585739,-2.622645 -0.585938,-4.019531 h -0.01563 c 0.01599,-7.719878 6.278152,-13.969603 13.998047,-13.970703 z"
       inkscape:label="NH_TS" />
    <path
       style="display:inline;fill:#d40000"
       d="m 85.672536,1.0321286 c -0.389603,-0.02873 -2.171878,0.28414 -3.921878,0.71289 -5.2,1.3 -9.75625,3.0875004 -13.15625,6.1875004 -1.5,1.3 -4.364844,4.206251 -5.464844,5.906251 -3.7,5.6 -6.136719,13.30664 -7.136719,21.30664 -0.505326,5.067621 -1.018291,9.373052 -1.023438,13.97461 0.1396,5.2295 1.329976,9.349572 3.484376,12.638672 3.6,6.2 10.51914,10.783203 17.619141,11.783203 5.8,0.96 10.953122,-0.198985 15.953122,-2.958985 0.74001,-0.38 1.44727,-0.801484 1.44727,-0.771484 0.057,0.065 -0.39,2.400391 -0.75,3.900391 -0.99,4.1 -2.89922,8.999996 -4.69922,11.999996 -3.000001,5.1 -7.6,8.999997 -13.000001,10.999997 -0.60004,0.22 -1.101562,0.45953 -1.101562,0.51953 -0.0054,0.0188 0.02253,0.0292 0.07813,0.0332 0.3896,0.0287 2.171875,-0.28414 3.921875,-0.71289 5.200001,-1.3 9.756248,-3.087497 13.156248,-6.187497 1.5,-1.3 4.36485,-4.20429 5.46485,-5.90429 3.700004,-5.600002 6.136714,-13.308596 7.136714,-21.308596 0.50539,-5.068016 1.0188,-9.37163 1.02344,-13.97461 -0.1396,-5.2295 -1.32802,-9.349572 -3.48242,-12.638671 -3.600004,-6.2 -10.521094,-10.783204 -17.621098,-11.783204 -5.8,-0.96 -10.953125,0.200938 -15.953125,2.960938 -0.74001,0.38 -1.447265,0.799531 -1.447265,0.769531 -0.057,-0.065 0.39,-2.400391 0.75,-3.900391 0.99,-4.1 2.899218,-9 4.699218,-12 3,-5.1 7.6,-9.0000004 13,-11.0000004 0.60004,-0.22 1.101566,-0.459531 1.101566,-0.519531 0.005,-0.0188 -0.0225,-0.0292 -0.0781,-0.0332 z"
       id="NH_HU"
       inkscape:label="NH_HU" />
    <path
       id="TD"
       style="opacity:1;fill:#d40000;fill-rule:evenodd"
       d="m 140.44046,25.090834 a 24.799999,24.700001 0 0 0 -24.80078,24.699219 24.799999,24.700001 0 0 0 24.80078,24.701172 24.799999,24.700001 0 0 0 24.79883,-24.701172 24.799999,24.700001 0 0 0 -24.79883,-24.699219 z m 0.21875,10.814453 a 14,14 0 0 1 14,14 14,14 0 0 1 -14,14 14,14 0 0 1 -14,-14 14,14 0 0 1 14,-14 z"
       inkscape:label="TD" />
    <path
       id="EX"
       style="opacity:1;fill:#d40000;fill-rule:evenodd"
       inkscape:label="EX"
       d="M 195,25 A 24.799999,24.700001 0 0 0 170.19922,49.69922 24.799999,24.700001 0 0 0 195,74.40039 24.799999,24.700001 0 0 0 219.79883,49.69922 24.799999,24.700001 0 0 0 195,25 Z m 0.21875,10.81445 a 14,14 0 0 1 7.79297,2.36914 l -7.8125,7.8125 -7.79492,-7.79296 a 14,14 0 0 1 7.81445,-2.38868 z m 11.37891,5.85352 a 14,14 0 0 1 2.62109,8.14648 14,14 0 0 1 -2.38867,7.8125 l -8.0957,-8.0957 z m -22.75391,0.04492 7.81836,7.81836 -8.07422,8.07422 a 14,14 0 0 1 -2.36914,-7.79102 14,14 0 0 1 2.625,-8.10156 z m 11.35547,11.35352 8.1211,8.12109 a 14,14 0 0 1 -8.10157,2.62695 14,14 0 0 1 -8.125,-2.64257 z" />
  </g>
</svg>

<?xml version="1.0" encoding="UTF-8" standalone="no"?>
<!-- Created with Inkscape (http://www.inkscape.org/) -->

<svg
   width="200"
   height="200"
   version="1.0"
   id="svg6"
   sodipodi:docname="TSmeta.svg"
   inkscape:version="1.1.1 (c3084ef, 2021-09-22)"
   xmlns:inkscape="http://www.inkscape.org/namespaces/inkscape"
   xmlns:sodipodi="http://sodipodi.sourceforge.net/DTD/sodipodi-0.dtd"
   xmlns="http://www.w3.org/2000/svg"
   xmlns:svg="http://www.w3.org/2000/svg">
  <defs
     id="defs10" />
  <sodipodi:namedview
     id="namedview8"
     pagecolor="#ffffff"
     bordercolor="#666666"
     borderopacity="1.0"
     inkscape:pageshadow="2"
     inkscape:pageopacity="0.0"
     inkscape:pagecheckerboard="0"
     showgrid="true"
     inkscape:zoom="4.8517716"
     inkscape:cx="38.336512"
     inkscape:cy="84.711326"
     inkscape:window-width="2047"
     inkscape:window-height="1402"
     inkscape:window-x="821"
     inkscape:window-y="35"
     inkscape:window-maximized="0"
     inkscape:current-layer="g4">
    <inkscape:grid
       type="xygrid"
       id="grid163" />
  </sodipodi:namedview>
  <g
     fill="#800000"
     stroke="#000000"
     stroke-linecap="round"
     stroke-width="0.11"
     id="g4"
     style="display:inline">
    <path
       id="NH_TS"
       style="fill:#d40000"
       d="M 30.998047 1.6113281 C 30.608444 1.5825981 28.826172 1.8954687 27.076172 2.3242188 C 21.876172 3.6242188 17.319922 5.4117188 13.919922 8.5117188 C 12.419922 9.8117188 9.5550781 12.717969 8.4550781 14.417969 C 4.7550781 20.017969 2.3183594 27.724609 1.3183594 35.724609 C 0.81303337 40.79223 0.30006888 45.097661 0.29492188 49.699219 C 0.43452188 54.928719 1.6248969 59.048791 3.7792969 62.337891 C 7.3792969 68.537891 14.298436 73.121094 21.398438 74.121094 C 27.198438 75.081094 32.351563 73.922109 37.351562 71.162109 C 38.091572 70.782109 38.798828 70.360625 38.798828 70.390625 C 38.855828 70.455625 38.408828 72.791016 38.048828 74.291016 C 37.058828 78.391016 35.149609 83.291016 33.349609 86.291016 C 30.349608 91.391016 25.74961 95.291016 20.349609 97.291016 C 19.749569 97.511016 19.248047 97.750547 19.248047 97.810547 C 19.242647 97.829347 19.270572 97.83975 19.326172 97.84375 C 19.715772 97.87245 21.498047 97.559609 23.248047 97.130859 C 28.448048 95.830859 33.004297 94.043359 36.404297 90.943359 C 37.904297 89.643359 40.769141 86.739062 41.869141 85.039062 C 45.569141 79.43906 48.005859 71.730469 49.005859 63.730469 C 49.511249 58.662453 50.024657 54.358839 50.029297 49.755859 C 49.889697 44.526359 48.701275 40.406286 46.546875 37.117188 C 42.946875 30.917188 36.025785 26.333984 28.925781 25.333984 C 23.125781 24.373984 17.972656 25.534922 12.972656 28.294922 C 12.232646 28.674922 11.525391 29.094453 11.525391 29.064453 C 11.468391 28.999453 11.915391 26.664062 12.275391 25.164062 C 13.265391 21.064062 15.174609 16.164063 16.974609 13.164062 C 19.974609 8.0640623 24.574609 4.1640625 29.974609 2.1640625 C 30.574649 1.9440625 31.076172 1.7045312 31.076172 1.6445312 C 31.081172 1.6257313 31.053647 1.6153281 30.998047 1.6113281 z M 25.207031 35.773438 C 32.93824 35.773438 39.206031 42.040279 39.207031 49.771484 L 39.222656 49.771484 C 39.219786 51.159187 39.015439 52.498718 38.636719 53.763672 C 36.908609 59.535738 31.556795 63.741284 25.224609 63.742188 C 18.890289 63.742187 13.538338 59.53597 11.810547 53.763672 C 11.429523 52.490726 11.224808 51.141027 11.224609 49.744141 L 11.208984 49.744141 C 11.224975 42.024263 17.487136 35.774538 25.207031 35.773438 z "
       inkscape:label="NH_TS" />
    <path
       style="display:inline;fill:#d40000"
       d="m 85.672536,1.0321286 c -0.389603,-0.02873 -2.171878,0.28414 -3.921878,0.71289 -5.2,1.3 -9.75625,3.0875004 -13.15625,6.1875004 -1.5,1.3 -4.364844,4.206251 -5.464844,5.906251 -3.7,5.6 -6.136719,13.30664 -7.136719,21.30664 -0.505326,5.067621 -1.018291,9.373052 -1.023438,13.97461 0.1396,5.2295 1.329976,9.349572 3.484376,12.638672 3.6,6.2 10.51914,10.783203 17.619141,11.783203 5.8,0.96 10.953122,-0.198985 15.953122,-2.958985 0.74001,-0.38 1.44727,-0.801484 1.44727,-0.771484 0.057,0.065 -0.39,2.400391 -0.75,3.900391 -0.99,4.1 -2.89922,8.999996 -4.69922,11.999996 -3.000001,5.1 -7.6,8.999997 -13.000001,10.999997 -0.60004,0.22 -1.101562,0.45953 -1.101562,0.51953 -0.0054,0.0188 0.02253,0.0292 0.07813,0.0332 0.3896,0.0287 2.171875,-0.28414 3.921875,-0.71289 5.200001,-1.3 9.756248,-3.087497 13.156248,-6.187497 1.5,-1.3 4.36485,-4.20429 5.46485,-5.90429 3.700004,-5.600002 6.136714,-13.308596 7.136714,-21.308596 0.50539,-5.068016 1.0188,-9.37163 1.02344,-13.97461 -0.1396,-5.2295 -1.32802,-9.349572 -3.48242,-12.638671 -3.600004,-6.2 -10.521094,-10.783204 -17.621098,-11.783204 -5.8,-0.96 -10.953125,0.200938 -15.953125,2.960938 -0.74001,0.38 -1.447265,0.799531 -1.447265,0.769531 -0.057,-0.065 0.39,-2.400391 0.75,-3.900391 0.99,-4.1 2.899218,-9 4.699218,-12 3,-5.1 7.6,-9.0000004 13,-11.0000004 0.60004,-0.22 1.101566,-0.459531 1.101566,-0.519531 0.005,-0.0188 -0.0225,-0.0292 -0.0781,-0.0332 z"
       id="NH_HU"
       inkscape:label="NH_HU" />
    <path
       id="TD"
       style="opacity:1;fill:#d40000;fill-rule:evenodd"
       d="m 140.44046,23.709164 a 24.799999,24.700001 0 0 0 -24.80078,24.699219 24.799999,24.700001 0 0 0 24.80078,24.701172 24.799999,24.700001 0 0 0 24.79883,-24.701172 24.799999,24.700001 0 0 0 -24.79883,-24.699219 z m 0.21875,10.814453 a 14,14 0 0 1 14,14 14,14 0 0 1 -14,14 14,14 0 0 1 -14,-14 14,14 0 0 1 14,-14 z"
       inkscape:label="TD" />
    <path
       id="EX"
       style="opacity:1;fill:#d40000;fill-rule:evenodd"
       inkscape:label="EX"
       d="M 30.068359 125.33203 A 24.799999 24.700001 0 0 0 5.2675781 150.03125 A 24.799999 24.700001 0 0 0 30.068359 174.73242 A 24.799999 24.700001 0 0 0 54.867188 150.03125 A 24.799999 24.700001 0 0 0 30.068359 125.33203 z M 30.287109 136.14648 A 14 14 0 0 1 38.080078 138.51562 L 30.267578 146.32812 L 22.472656 138.53516 A 14 14 0 0 1 30.287109 136.14648 z M 41.666016 142 A 14 14 0 0 1 44.287109 150.14648 A 14 14 0 0 1 41.898438 157.95898 L 33.802734 149.86328 L 41.666016 142 z M 18.912109 142.04492 L 26.730469 149.86328 L 18.65625 157.9375 A 14 14 0 0 1 16.287109 150.14648 A 14 14 0 0 1 18.912109 142.04492 z M 30.267578 153.39844 L 38.388672 161.51953 A 14 14 0 0 1 30.287109 164.14648 A 14 14 0 0 1 22.162109 161.50391 L 30.267578 153.39844 z " />
  </g>
</svg>
